svgs/sharp-thin/trash-can-plus.svg

<svg xmlns="http://www.w3.org/2000/svg" viewBox="0 0 448 512"><!--! Font Awesome Pro 6.5.2 by @fontawesome - https://fontawesome.com License - https://fontawesome.com/license (Commercial License) Copyright 2024 Fonticons, Inc. --><path d="M160 0H288h4.4l2.4 3.8L332.4 64H448V80H0V64H115.6L153.2 3.8 155.6 0H160zM313.6 64l-30-48H164.4l-30 48H313.6zM32 504V112H48V496H400V112h16V504v8h-8H40 32v-8zM232 192v8 80h80 8v16h-8H232v80 8H216v-8V296H136h-8V280h8 80V200v-8h16z"/></svg>

<svg xmlns="http://www.w3.org/2000/svg" viewBox="0 0 448 512"><!--! Font Awesome Pro 6.6.0 by @fontawesome - https://fontawesome.com License - https://fontawesome.com/license (Commercial License) Copyright 2024 Fonticons, Inc. --><path d="M160 0L288 0l4.4 0 2.4 3.8L332.4 64 448 64l0 16L0 80 0 64l115.6 0L153.2 3.8 155.6 0 160 0zM313.6 64l-30-48L164.4 16l-30 48 179.1 0zM32 504l0-392 16 0 0 384 352 0 0-384 16 0 0 392 0 8-8 0L40 512l-8 0 0-8zM232 192l0 8 0 80 80 0 8 0 0 16-8 0-80 0 0 80 0 8-16 0 0-8 0-80-80 0-8 0 0-16 8 0 80 0 0-80 0-8 16 0z"/></svg>
